assets/icons/code-merge.svg

<svg xmlns="http://www.w3.org/2000/svg" class="icon" viewBox="0 0 512 512">
  <path
    d="M112 48q14 0 23 9t9 23-9 23-23 9-23-9-9-23 9-23 23-9m25 108q24-8 39-29 16-20 16-47-1-34-23-57-23-22-57-23-34 1-57 23-22 23-23 57 0 27 16 48 15 20 40 28v200q-25 8-40 28-16 21-16 48 1 34 23 57 23 22 57 23 34-1 57-23 22-23 23-57 0-27-16-48-15-20-40-28V255q42 40 104 41h84q8 25 28 40 21 16 48 16 34-1 57-23 22-23 23-57-1-34-23-57-23-22-57-23-27 0-48 16-20 15-28 40h-84q-41-1-69-27-29-25-34-65m-25 244q14 0 23 9t9 23-9 23-23 9-23-9-9-23 9-23 23-9m256-128q0-14 9-23t23-9 23 9 9 23-9 23-23 9-23-9-9-23" />
</svg>

<svg xmlns="http://www.w3.org/2000/svg" class="icon" viewBox="0 0 512 512">
  <path
    d="M 112 48 Q 126 48 135 57 L 135 57 L 135 57 Q 144 66 144 80 Q 144 94 135 103 Q 126 112 112 112 Q 98 112 89 103 Q 80 94 80 80 Q 80 66 89 57 Q 98 48 112 48 L 112 48 Z M 137 156 Q 161 148 176 127 L 176 127 L 176 127 Q 192 107 192 80 Q 191 46 169 23 Q 146 1 112 0 Q 78 1 55 23 Q 33 46 32 80 Q 32 107 48 128 Q 63 148 88 156 L 88 356 L 88 356 Q 63 364 48 384 Q 32 405 32 432 Q 33 466 55 489 Q 78 511 112 512 Q 146 511 169 489 Q 191 466 192 432 Q 192 405 176 384 Q 161 364 136 356 L 136 255 L 136 255 Q 178 295 240 296 L 324 296 L 324 296 Q 332 321 352 336 Q 373 352 400 352 Q 434 351 457 329 Q 479 306 480 272 Q 479 238 457 215 Q 434 193 400 192 Q 373 192 352 208 Q 332 223 324 248 L 240 248 L 240 248 Q 199 247 171 221 Q 142 196 137 156 L 137 156 Z M 112 400 Q 126 400 135 409 L 135 409 L 135 409 Q 144 418 144 432 Q 144 446 135 455 Q 126 464 112 464 Q 98 464 89 455 Q 80 446 80 432 Q 80 418 89 409 Q 98 400 112 400 L 112 400 Z M 368 272 Q 368 258 377 249 L 377 249 L 377 249 Q 386 240 400 240 Q 414 240 423 249 Q 432 258 432 272 Q 432 286 423 295 Q 414 304 400 304 Q 386 304 377 295 Q 368 286 368 272 L 368 272 Z"
  />
</svg>
